icons/properties-32.svg

<svg id="icons" xmlns="http://www.w3.org/2000/svg" viewBox="0 0 32 32"><defs><style>.cls-1{fill:none;}</style></defs><rect class="cls-1" width="32" height="32"/><path d="M28,7V3a.99947.99947,0,0,0-1-1H3A.99943.99943,0,0,0,2,3V30a.99947.99947,0,0,0,1,1H27a.99951.99951,0,0,0,1-1V21h3V7ZM27,30H3V3H27V7H11V27.30267L17.30078,21H27Zm3-10H17.18646L12,25.1875V8H30ZM17,15H14v3h3Zm-1,2H15V16h1Zm1-7H14v3h3Zm-1,2H15V11h1Zm12,0H18V11H28Zm0,5H18V16H28Z"/></svg>

<svg xmlns="http://www.w3.org/2000/svg" viewBox="0 0 32 32"><path fill="none" d="M0 0h32v32H0z"/><path d="M28 7V3a1 1 0 0 0-1-1H3a1 1 0 0 0-1 1v27a1 1 0 0 0 1 1h24a1 1 0 0 0 1-1v-9h3V7zm-1 23H3V3h24v4H11v20.303L17.3 21H27zm3-10H17.186L12 25.188V8h18zm-13-5h-3v3h3zm-1 2h-1v-1h1zm1-7h-3v3h3zm-1 2h-1v-1h1zm12 0H18v-1h10zm0 5H18v-1h10z"/></svg>
